X: 15273
T: Girl Who Broke My Heart, The
R: reel
M: 4/4
K: Gmixolydian
BG3 EDcE|DGG^F GABc|de=fe dcAG|DEFE F2 dc|
BG3 EDcE|DGG^F GABc|de=fe dcAG|DGG^F G2||
G2 (Bd) gdBG|F2 (Ac) fcAF|G2 (Bd) gdBd|cBcd cAFA|
G2 (Bd) gdBG|F2 (Ac) fcdB|GABd cAGE|DGAG^F G2||

